X:1
T:[ID 11-29e]
T:[ID 11-29e]
T:Bezeichnung standardisiert: Walzer Nr 16 Walzer
T:Urheber unbekannt Datum in der hier transkribierten schriftlichen Quelle: vermutlich um 1800
C:Urheber unbekannt
C:Datum in der hier transkribierten schriftlichen Quelle: vermutlich um 1800
L:1/8
M:3/4
K:C
V:1 treble 
V:1
 G2 | G2 E2 G2 | c4 G2 | G2 E2 G2 | E2 C2 G2 | cceedd | ccggff | edcedB | c4 :: G2 | Bdfdec | %11
 dcBA G2 | cegefd |"^1)" edcB | A2 fedc | e2 g2 f2 | ed c2 B2 | c4 :| %18

